svg/fluentui-system-icons/ic_fluent_text_align_center_rotate_90_20_filled.svg

<svg width="20" height="20" viewBox="0 0 20 20" fill="none" xmlns="http://www.w3.org/2000/svg">
<path d="M15.75 4C16.1642 4 16.5 4.33579 16.5 4.75V15.25C16.5 15.6642 16.1642 16 15.75 16C15.3358 16 15 15.6642 15 15.25V4.75C15 4.33579 15.3358 4 15.75 4ZM10.75 2C11.1642 2 11.5 2.33579 11.5 2.75V17.25C11.5 17.6642 11.1642 18 10.75 18C10.3358 18 10 17.6642 10 17.25V2.75C10 2.33579 10.3358 2 10.75 2ZM6.5 6.75C6.5 6.33579 6.16421 6 5.75 6C5.33579 6 5 6.33579 5 6.75V13.25C5 13.6642 5.33579 14 5.75 14C6.16421 14 6.5 13.6642 6.5 13.25V6.75Z" fill="#212121"/>
</svg>

<svg xmlns="http://www.w3.org/2000/svg" width="20" height="20"><path d="M15.75 4a.75.75 0 0 1 .75.75v10.5a.75.75 0 0 1-1.5 0V4.75a.75.75 0 0 1 .75-.75Zm-5-2a.75.75 0 0 1 .75.75v14.5a.75.75 0 0 1-1.5 0V2.75a.75.75 0 0 1 .75-.75ZM6.5 6.75a.75.75 0 0 0-1.5 0v6.5a.75.75 0 0 0 1.5 0v-6.5Z"/></svg>
